X:525
%%etbk:tnset id:254,pos:1,rep:3x,ant:
%%etbk:wsite http://comhaltas.ie/music/detail/comhaltaslive_246_1_cruinniu
%%etbk:wsite http://thesession.org/tunes/2241
%%etbk:skill ?
%%etbk:pldat 2013-10-07T18:26,2013-10-04T16:17,2013-10-02T17:52,2013-10-01T18:43,2013-09-26T16:16,2013-09-11T20:03
T: The Milky Way
Z: Piano Box Version by Martin Fleischmann
H: Created 2013-09-11 /  Last Modified 2013-10-04
R: reel
M: 4/4
L: 1/8
K: Dmaj
!1!D2 !2!FD !2!F!4!A!1!AB | !3!defd efd2 | D2 FD !2!F!4!AAA | !5!B!2!FFF !5!BF!4!AF |
D2 FD FAAB | defd ef d2 | !4!efd!2!B !2!B!1!A!2!F!5!B | !4!AF!1!E!3!G !2!F!1!D D2 :|
|: !4!efd!2!B B!1!AFA | !3!d2 fd ef d2 | !4!efdB B!1!A!2!F!5!B | !4!AFE!3!G F!1!D D2 |
!4!efdB BAFA | !3!d2 fd efde | !5!f2 df !4!efdB | !1!A!2!FEG !2!F!1!D D2 :|
